app/assets/img/burgerX.svg

<svg width="40" height="40" viewBox="0 0 40 40" fill="none" xmlns="http://www.w3.org/2000/svg">
<g id="ic/burger">
<rect id="back" width="40" height="40" rx="20" fill="#FF3E79"/>
<path id="icon" fill-rule="evenodd" clip-rule="evenodd" d="M13.7935 12.2571C13.403 11.8666 12.7698 11.8666 12.3793 12.2571L12.2571 12.3793C11.8666 12.7698 11.8666 13.403 12.2571 13.7935L18.4636 20L12.2571 26.2065C11.8666 26.597 11.8666 27.2302 12.2571 27.6207L12.3793 27.7429C12.7698 28.1334 13.403 28.1334 13.7935 27.7429L20 21.5364L26.2065 27.7429C26.597 28.1334 27.2302 28.1334 27.6207 27.7429L27.7429 27.6207C28.1334 27.2302 28.1334 26.597 27.7429 26.2065L21.5364 20L27.7429 13.7935C28.1334 13.403 28.1334 12.7698 27.7429 12.3793L27.6207 12.2571C27.2302 11.8666 26.597 11.8666 26.2065 12.2571L20 18.4636L13.7935 12.2571Z" fill="white"/>
</g>
</svg>

<svg width="40" height="40" fill="none" xmlns="http://www.w3.org/2000/svg"><rect width="40" height="40" rx="20" fill="#FF3E79"/><path fill-rule="evenodd" clip-rule="evenodd" d="M13.793 12.257a1 1 0 0 0-1.414 0l-.122.122a1 1 0 0 0 0 1.415L18.464 20l-6.207 6.206a1 1 0 0 0 0 1.415l.122.122a1 1 0 0 0 1.415 0L20 21.536l6.206 6.207a1 1 0 0 0 1.415 0l.122-.122a1 1 0 0 0 0-1.415L21.536 20l6.207-6.207a1 1 0 0 0 0-1.414l-.122-.122a1 1 0 0 0-1.415 0L20 18.464l-6.207-6.207Z" fill="#fff"/></svg>
